X:1
T:Title
L:1/8
M:4/4
I:linebreak $
K:F
V:1 treble nm="Voice"
V:1
 AB |"F" c=BcA"Bb" d_Bfd |"F" cAFA cAdc |"Bb" BAGB"F" AGFA |"C" Gc=Bd"F" c_BAB | %5
"F" c=BcA"Bb" d_Bfd |"F" cAFA"C" cdef |"Bb" defg"C" efga |"F" f2 a2 f2 :: ef |"F" aAgA fAeA | %11
 fAeA"Dm" dAfA |"Am" eA^ce agfe |"F" fgef"Bb" defg |"F" aAgA fAeA | fAeA"Dm" dAdf |"C" efga bgeg | %17
"F" f2 a2 f2 :| %18
